X:1
T:Title
%%score { ( 1 3 ) | ( 2 4 ) }
L:1/8
M:4/4
K:D
V:1 treble nm="Grand Piano"
V:3 treble 
V:2 bass 
V:4 bass 
V:1
 z4 z2[Q:1/4=100] F2 | F2 E2 A2 G2 | F6 [CE]2 | [B,D]2 [B,D]2 [CE]2 [CE]2 | F6 F2 | F2 E2 A2 G2 | %6
 F6 [DFB]2 | [CEA]2 [B,E^G]2 [B,DF]2 [B,DG]2 |[M:3/4] [A,CA]6 |[M:1/4] A2 |[M:4/4] B6 z2 | A6 z2 | %12
 [EG]2 [^DF]2 [EG]2 [FA]2 | [DF]6 z2 | F2 E2 A2 G2 |[M:9/8] F2 [CE]- [CE] F2- F B2 | %16
[M:4/4] z2 B2 z4 |[M:3/4] D6 |] %18
V:2
 z4 z2 [D,A,D]2 | [A,D]2 [G,A,C]2 [F,A,D]2 [E,A,C]2 | [D,A,D]6 [A,,G,]2 | %3
 [B,,F,]2 [B,,F,]2 [A,,A,]2 [A,,A,]2 | [D,A,D]6 [F,A,D]2 | [A,D]2 [G,A,C]2 [F,A,D]2 [E,A,C]2 | %6
 [D,A,D]6 B,,2 | E,2 E,2 E,2 E,2 |[M:3/4] A,,6 |[M:1/4][K:treble] C2 | %10
[M:4/4] G6[K:bass][K:treble] z2 | F6[K:bass] z2 | [A,,A,]2 [A,,A,]2 [A,,A,]2 [A,,A,]2 | %13
 [D,A,]2 D,2 D,2 [F,A,D]2 | [A,D]2 [G,A,C]2 [F,A,D]2 [E,A,C]2 | %15
[M:9/8] [D,A,D]2 [A,,A,]- [A,,A,] [D,A,D]2- [D,A,D] [G,D]2 | %16
[M:4/4] [F,A,D]2 [G,D]2 [A,D]2 [A,,G,]2 |[M:3/4] [D,F,]6 |] %18
V:3
 x8 | x8 | x8 | x8 | x8 | x8 | x8 | x8 |[M:3/4] x6 |[M:1/4] x2 |[M:4/4] z2 C2 C2 B2 | %11
 z2 D2 D2 [A,FA]2 | x8 | z2 A,2 A,2 F2 | x8 |[M:9/8] x9 |[M:4/4] A2 z B, F2 [CE]2 |[M:3/4] x6 |] %18
V:4
 x8 | x8 | x8 | x8 | x8 | x8 | x8 | x8 |[M:3/4] x6 |[M:1/4][K:treble] x2 | %10
[M:4/4] z2[K:bass] A,,2 A,,2[K:treble] G2 | z2[K:bass] D,2 D,2 D,2 | x8 | x8 | x8 |[M:9/8] x9 | %16
[M:4/4] x8 |[M:3/4] x6 |] %18

